res/skins/LateNight/palemoon/buttons/btn__beatgrid_controls_collapse.svg

<?xml version="1.0" encoding="UTF-8" standalone="no"?>
<svg
   xmlns:dc="http://purl.org/dc/elements/1.1/"
   xmlns:cc="http://creativecommons.org/ns#"
   xmlns:rdf="http://www.w3.org/1999/02/22-rdf-syntax-ns#"
   xmlns:svg="http://www.w3.org/2000/svg"
   xmlns="http://www.w3.org/2000/svg"
   width="26"
   height="52"
   version="1.1"
   id="svg16">
  <metadata
     id="metadata22">
    <rdf:RDF>
      <cc:Work
         rdf:about="">
        <dc:format>image/svg+xml</dc:format>
        <dc:type
           rdf:resource="http://purl.org/dc/dcmitype/StillImage" />
        <dc:title></dc:title>
      </cc:Work>
    </rdf:RDF>
  </metadata>
  <defs
     id="defs20" />
  <g
     style="fill:none;stroke:#000001;stroke-opacity:1"
     id="g1614">
    <path
       d="m 20.25735,45.224312 c -0.957305,0.834439 -2.423288,0.733907 -3.257741,-0.223406 L 9.331122,36.203358 C 7.5760221,36.617568 5.6542544,36.096071 4.3925974,34.648655 3.1300955,33.20027 2.8751128,31.224074 3.5266679,29.541431 l 2.0772585,2.383101 c 0.8344525,0.957312 2.3004357,1.057845 3.2577403,0.223405 0.9573046,-0.834439 1.0563284,-2.299117 0.2218758,-3.25643 L 7.0062841,26.508406 c 1.7558316,-0.41578 3.6787399,0.106574 4.9412419,1.554959 1.262697,1.448609 1.51741,3.424646 0.865929,5.107225 l 7.667187,8.796057 c 0.834453,0.957312 0.733938,2.423291 -0.223367,3.25773 z"
       id="path2"
       style="color:#000001;fill:none;stroke:#000001;stroke-width:1.60000002;stroke-linejoin:round;stroke-miterlimit:4;stroke-dasharray:none;stroke-opacity:1" />
    <path
       d="m 8.9996834,37.363444 v 7.6375 h 1.9999996 v -5.3425 z"
       id="path6"
       style="fill:none;stroke:#000001;stroke-width:1.60000002;stroke-linejoin:round;stroke-miterlimit:4;stroke-dasharray:none;stroke-opacity:1" />
    <path
       d="m 13.999684,27.000445 v 5.9864 l 2,2.294899 v -8.281299 z"
       id="path8"
       style="fill:none;stroke:#000001;stroke-width:1.60000002;stroke-linejoin:round;stroke-miterlimit:4;stroke-dasharray:none;stroke-opacity:1" />
    <path
       d="m 18.999684,27.000445 v 11.724999 l 2,2.293 V 27.000445 Z"
       id="path10"
       style="fill:none;stroke:#000001;stroke-width:1.60000002;stroke-linejoin:round;stroke-miterlimit:4;stroke-dasharray:none;stroke-opacity:1" />
    <path
       d="m 3.9996834,35.713444 v 9.2874 h 2 v -7.9846 c -0.73826,-0.26909 -1.4212,-0.69782 -2,-1.3027 z"
       id="path12"
       style="fill:none;stroke:#000001;stroke-width:1.60000002;stroke-linejoin:round;stroke-miterlimit:4;stroke-dasharray:none;stroke-opacity:1" />
    <path
       d="M 5.3640836,18.097737 9.7893426,13.672573 5.3640836,9.2474084 6.4704696,8.1411173 12.002019,13.672573 6.4704696,19.204029 Z"
       id="path2-9"
       style="fill:none;stroke:#000001;stroke-width:1.60000002;stroke-linejoin:round;stroke-opacity:1" />
    <path
       d="m 20.635882,18.097737 -4.425258,-4.425258 4.425258,-4.4252586 -1.106385,-1.1063851 -5.531549,5.5315497 5.531549,5.53155 1.106385,-1.106385 z"
       id="path4"
       style="fill:none;stroke:#000001;stroke-width:1.60000002;stroke-linejoin:round;stroke-opacity:1" />
  </g>
  <g
     transform="matrix(-0.5112,0.44559,-0.50559,-0.58003,28.908684,44.828444)"
     id="g4-1"
     style="fill:#666668;stroke-width:1.0108;fill-opacity:1">
    <path
       transform="matrix(-1.4588,0,0,1.2857,27.506,3.1429)"
       d="M 12,3 C 10.7163,3 9.666,4.0503 9.666,5.334 v 11.797 c -1.6125,0.8501 -2.7305,2.5239 -2.7305,4.4648 0,1.9422 1.1183,3.6174 2.7324,4.4668 V 22.867 c 0,-1.2837 1.0503,-2.334 2.334,-2.334 1.2837,0 2.332,1.0503 2.332,2.334 v 3.1956 c 1.6141,-0.84939 2.7324,-2.5246 2.7324,-4.4668 0,-1.9425 -1.1184,-3.6174 -2.7324,-4.4668 V 5.334 C 14.3339,4.0503 13.2836,3 11.9999,3 Z"
       id="path2-2"
       style="color:#000001;fill:#666668;fill-opacity:1" />
  </g>
  <path
     d="m 8.9996834,37.363444 v 7.6375 h 1.9999996 v -5.3425 z"
     id="path6-5"
     style="fill:#666668;fill-opacity:1" />
  <path
     d="m 13.999684,27.000445 v 5.9864 l 2,2.294899 v -8.281299 z"
     id="path8-6"
     style="fill:#666668;fill-opacity:1" />
  <path
     d="m 18.999684,27.000445 v 11.724999 l 2,2.293 V 27.000445 Z"
     id="path10-2"
     style="fill:#666668;fill-opacity:1" />
  <path
     d="m 3.9996834,35.713444 v 9.2874 h 2 v -7.9846 c -0.73826,-0.26909 -1.4212,-0.69782 -2,-1.3027 z"
     id="path12-9"
     style="fill:#666668;fill-opacity:1" />
  <path
     d="M 5.3640826,18.09772 9.7893416,13.672556 5.3640826,9.2473914 6.4704686,8.1411003 12.002018,13.672556 6.4704686,19.204012 Z"
     id="path6-1"
     style="fill:#666668;fill-opacity:1;stroke-width:0.939924" />
  <path
     d="m 20.635881,18.09772 -4.425258,-4.425258 4.425258,-4.4252586 -1.106385,-1.1063851 -5.531549,5.5315497 5.531549,5.53155 1.106385,-1.106385 z"
     id="path8-2"
     style="fill:#666668;fill-opacity:1;stroke-width:0.939924" />
</svg>

<svg width="26" height="52" version="1.1" xmlns="http://www.w3.org/2000/svg">
  <g fill="none" stroke="#000001" stroke-linejoin="round" stroke-width="1.6">
    <path d="m20.257 45.224c-0.9573 0.83444-2.4233 0.73391-3.2577-0.22341l-7.6685-8.7975c-1.7551 0.41421-3.6769-0.10729-4.9385-1.5547-1.2625-1.4484-1.5175-3.4246-0.86593-5.1072l2.0773 2.3831c0.83445 0.95731 2.3004 1.0578 3.2577 0.2234 0.9573-0.83444 1.0563-2.2991 0.22188-3.2564l-2.0773-2.3831c1.7558-0.41578 3.6787 0.10657 4.9412 1.555 1.2627 1.4486 1.5174 3.4246 0.86593 5.1072l7.6672 8.7961c0.83445 0.95731 0.73394 2.4233-0.22337 3.2577z" color="#000001"/>
    <path d="m8.9997 37.363v7.6375h2v-5.3425z"/>
    <path d="m14 27v5.9864l2 2.2949v-8.2813z"/>
    <path d="m19 27v11.725l2 2.293v-14.018z"/>
    <path d="m3.9997 35.713v9.2874h2v-7.9846c-0.73826-0.26909-1.4212-0.69782-2-1.3027z"/>
    <path d="m5.3641 18.098 4.4253-4.4252-4.4253-4.4252 1.1064-1.1063 5.5315 5.5315-5.5315 5.5315z"/>
    <path d="m20.636 18.098-4.4253-4.4253 4.4253-4.4253-1.1064-1.1064-5.5315 5.5315 5.5315 5.5316 1.1064-1.1064z"/>
  </g>
  <g fill="#666668">
    <g transform="matrix(-.5112 .44559 -.50559 -.58003 28.909 44.828)" stroke-width="1.0108">
      <path transform="matrix(-1.4588,0,0,1.2857,27.506,3.1429)" d="m12 3c-1.2837 0-2.334 1.0503-2.334 2.334v11.797c-1.6125 0.8501-2.7305 2.5239-2.7305 4.4648 0 1.9422 1.1183 3.6174 2.7324 4.4668v-3.1956c0-1.2837 1.0503-2.334 2.334-2.334s2.332 1.0503 2.332 2.334v3.1956c1.6141-0.84939 2.7324-2.5246 2.7324-4.4668 0-1.9425-1.1184-3.6174-2.7324-4.4668v-11.795c0-1.2837-1.0503-2.334-2.334-2.334z" color="#000001" fill="#666668"/>
    </g>
    <path d="m8.9997 37.363v7.6375h2v-5.3425z"/>
    <path d="m14 27v5.9864l2 2.2949v-8.2813z"/>
    <path d="m19 27v11.725l2 2.293v-14.018z"/>
    <path d="m3.9997 35.713v9.2874h2v-7.9846c-0.73826-0.26909-1.4212-0.69782-2-1.3027z"/>
    <path d="m5.3641 18.098 4.4253-4.4252-4.4253-4.4252 1.1064-1.1063 5.5315 5.5315-5.5315 5.5315z" stroke-width=".93992"/>
    <path d="m20.636 18.098-4.4253-4.4253 4.4253-4.4253-1.1064-1.1064-5.5315 5.5315 5.5315 5.5316 1.1064-1.1064z" stroke-width=".93992"/>
  </g>
</svg>
